Newaita/actions/symbolic/view-column-symbolic.svg

<svg height="16" viewBox="0 0 16 16" width="16" xmlns="http://www.w3.org/2000/svg"><g fill="#424242"><path d="m8.882812 2.757812v10.523438c0 .363281-.296874.660156-.660156.660156h-.65625c-.363281 0-.660156-.296875-.660156-.660156v-10.523438c0-.367187.296875-.660156.660156-.660156h.65625c.363282 0 .660156.292969.660156.660156zm0 0"/><path d="m13.816406 2.757812v10.523438c0 .363281-.296875.660156-.660156.660156h-.65625c-.363281 0-.65625-.296875-.65625-.660156v-10.523438c0-.367187.292969-.660156.65625-.660156h.65625c.363281 0 .660156.292969.660156.660156zm0 0"/><path d="m3.949219 2.757812v10.523438c0 .363281-.296875.660156-.660157.660156h-.65625c-.363281 0-.660156-.296875-.660156-.660156v-10.523438c0-.367187.296875-.660156.660156-.660156h.65625c.363282 0 .660157.292969.660157.660156zm0 0"/></g></svg>

<?xml version="1.0" encoding="UTF-8"?>
<svg xmlns="http://www.w3.org/2000/svg" xmlns:xlink="http://www.w3.org/1999/xlink" width="16px" height="16px" viewBox="0 0 16 16" version="1.1">
<g id="surface1">
<path style=" stroke:none;fill-rule:nonzero;fill:rgb(25.882354%,25.882354%,25.882354%);fill-opacity:1;" d="M 8.882812 2.757812 L 8.882812 13.28125 C 8.882812 13.644531 8.585938 13.941406 8.222656 13.941406 L 7.566406 13.941406 C 7.203125 13.941406 6.90625 13.644531 6.90625 13.28125 L 6.90625 2.757812 C 6.90625 2.390625 7.203125 2.097656 7.566406 2.097656 L 8.222656 2.097656 C 8.585938 2.097656 8.882812 2.390625 8.882812 2.757812 Z M 8.882812 2.757812 "/>
<path style=" stroke:none;fill-rule:nonzero;fill:rgb(25.882354%,25.882354%,25.882354%);fill-opacity:1;" d="M 13.816406 2.757812 L 13.816406 13.28125 C 13.816406 13.644531 13.519531 13.941406 13.15625 13.941406 L 12.5 13.941406 C 12.136719 13.941406 11.84375 13.644531 11.84375 13.28125 L 11.84375 2.757812 C 11.84375 2.390625 12.136719 2.097656 12.5 2.097656 L 13.15625 2.097656 C 13.519531 2.097656 13.816406 2.390625 13.816406 2.757812 Z M 13.816406 2.757812 "/>
<path style=" stroke:none;fill-rule:nonzero;fill:rgb(25.882354%,25.882354%,25.882354%);fill-opacity:1;" d="M 3.949219 2.757812 L 3.949219 13.28125 C 3.949219 13.644531 3.652344 13.941406 3.289062 13.941406 L 2.632812 13.941406 C 2.269531 13.941406 1.972656 13.644531 1.972656 13.28125 L 1.972656 2.757812 C 1.972656 2.390625 2.269531 2.097656 2.632812 2.097656 L 3.289062 2.097656 C 3.652344 2.097656 3.949219 2.390625 3.949219 2.757812 Z M 3.949219 2.757812 "/>
</g>
</svg>
